resources/svg/chats-thin.svg

<svg xmlns="http://www.w3.org/2000/svg" viewBox="0 0 256.00098 256.00098" fill="currentColor"><path d="M228,96.00049a12.01343,12.01343,0,0,0-12-12H180.001v-36a12.01344,12.01344,0,0,0-12-12h-128a12.01343,12.01343,0,0,0-12,12v128a4.00011,4.00011,0,0,0,6.51464,3.11084l38.48243-31.11084H76l.001,36a12.01343,12.01343,0,0,0,12,12h95.00195l38.4834,31.11084a3.9999,3.9999,0,0,0,6.51465-3.11084Zm-156.417,44a4.00176,4.00176,0,0,0-2.51465.88916L36.001,167.62305V48.00049a4.00426,4.00426,0,0,1,4-4h128a4.00427,4.00427,0,0,1,4,4V87.99078l-.001.00971.001.0097v47.9903a4.00428,4.00428,0,0,1-4,4Zm115.34961,48.88916a4.00178,4.00178,0,0,0-2.51465-.88916H88.001a4.00427,4.00427,0,0,1-4-4l-.001-36h84.001a12.01344,12.01344,0,0,0,12-12v-44H216a4.00427,4.00427,0,0,1,4,4l.001,119.62256Z"/></svg>

<svg xmlns="http://www.w3.org/2000/svg" viewBox="0 0 256 256" fill="currentColor"><path d="M228,96a12,12,0,0,0-12-12H180V48a12,12,0,0,0-12-12H40A12,12,0,0,0,28,48V176a4.1,4.1,0,0,0,2.3,3.6,3.3,3.3,0,0,0,1.7.4,3.8,3.8,0,0,0,2.5-.9L73,148h3v36a12,12,0,0,0,12,12h95l38.5,31.1a3.8,3.8,0,0,0,2.5.9,3.3,3.3,0,0,0,1.7-.4A4.1,4.1,0,0,0,228,224ZM71.6,140a3.8,3.8,0,0,0-2.5.9L36,167.6V48a4,4,0,0,1,4-4H168a4,4,0,0,1,4,4V88h0v48a4,4,0,0,1-4,4Zm115.3,48.9a3.8,3.8,0,0,0-2.5-.9H88a4,4,0,0,1-4-4V148h84a12,12,0,0,0,12-12V92h36a4,4,0,0,1,4,4V215.6Z"/></svg>
